X:660
T: McKiernan's
S: B.Breathnach: "Ceol Rince na hEireann" II/162 (gan ainm)
Z: B.Black
L: 1/8
M: 4/4
R: reel
K: G
GB B2 GBdB|GB B2 A2 FD|GB B2 GBdB|1 c2 Bc A2 FD :|2\
c2 Bc A3||
D|E2 BE E2 BE|E2 BE A2 FD|E2 BE E2 Bd|1 c2 Bc A2 F :|2\
c2 Bc A2 A2||

